X: 2285
T: Back Of The Haggard, The
R: hornpipe
M: 4/4
K: Dmajor
|:(3ABc|dfdf ecAc|dcdB AFDF|GFGB Afed|c2A2 A2(3ABc|
dAAd eAAe|fefg afdc|BdcB AFGE|D2DC D2:|
|:(3ABc|dcdA FDFA|BGFG DGFG|gefd ecdB|Afed cBAG|
FddF GeeG|AffA Bg (3gag|fafd Bgec|d2dc d2:|

